X: 40079
T: Thugamar Fein An Samhradh Linn
R: waltz
M: 3/4
K: Dmixolydian
|:D2 E2 G2|A4 A2|A2 B2 G2|A4 D2|
G2 A2 B2|c4 A2|B4 G2|E6|
c2 d2 c2|B4 G2|A4 D2|G4 E2|
D2 c2 B2|c4 A2|G4 E2|D6:|

